src/lib/packages/icons/src/assets/line/file-check.svg

<svg xmlns="http://www.w3.org/2000/svg" width="24" height="24" fill="none"><path fill="currentColor" d="m20.53 8.47-6-6a.749.749 0 0 0-.53-.22H8C5.582 2.25 4.25 3.582 4.25 6v12c0 2.418 1.332 3.75 3.75 3.75h9c2.418 0 3.75-1.332 3.75-3.75V9a.747.747 0 0 0-.22-.53Zm-5.78-3.659 3.439 3.439H17c-1.577 0-2.25-.673-2.25-2.25V4.811ZM17 20.25H8c-1.577 0-2.25-.673-2.25-2.25V6c0-1.577.673-2.25 2.25-2.25h5.25V6c0 2.418 1.332 3.75 3.75 3.75h2.25V18c0 1.577-.673 2.25-2.25 2.25Zm-1.47-8.447a.75.75 0 0 1 0 1.061l-3.333 3.334a.749.749 0 0 1-1.06 0L9.47 14.531a.75.75 0 1 1 1.061-1.061l1.137 1.137 2.803-2.804a.748.748 0 0 1 1.059 0Z"/></svg>

<svg width="24" height="24" viewBox="0 0 24 24" fill="none" xmlns="http://www.w3.org/2000/svg">
<path d="M20.53 8.47L14.53 2.47C14.389 2.329 14.199 2.25 14 2.25H8C5.582 2.25 4.25 3.582 4.25 6V18C4.25 20.418 5.582 21.75 8 21.75H17C19.418 21.75 20.75 20.418 20.75 18V9C20.75 8.801 20.671 8.61 20.53 8.47ZM14.75 4.811L18.189 8.25H17C15.423 8.25 14.75 7.577 14.75 6V4.811ZM17 20.25H8C6.423 20.25 5.75 19.577 5.75 18V6C5.75 4.423 6.423 3.75 8 3.75H13.25V6C13.25 8.418 14.582 9.75 17 9.75H19.25V18C19.25 19.577 18.577 20.25 17 20.25ZM15.53 11.803C15.823 12.096 15.823 12.571 15.53 12.864L12.197 16.198C12.056 16.339 11.866 16.418 11.667 16.418C11.468 16.418 11.277 16.339 11.137 16.198L9.46997 14.531C9.17697 14.238 9.17697 13.763 9.46997 13.47C9.76297 13.177 10.238 13.177 10.531 13.47L11.668 14.607L14.4709 11.803C14.7629 11.51 15.237 11.51 15.53 11.803Z" fill="currentColor"/>
</svg>
